X: 92
T: 9th Of July, The
R: jig
M: 6/8
K: Ddorian
A2d cec|AGE EDE|A,DE F3|~G3 cGE|
D2d cec|AGE EDC|A,DE F3|~E3 D2z:|
|:Ade f2g|gfg afd|GAc ecc|gcc edc|
Ade f2g|gfg ~a3|cdc AGE|EDE D2z:|

